symbols/web/note_alt/materialsymbolsoutlined/note_alt_wght200gradN25_48px.svg

<svg xmlns="http://www.w3.org/2000/svg" height="48" width="48"><path d="M15.7 32.2h1.5l12.15-12.15-1.5-1.5L15.7 30.7Zm14.5-13 1.55-1.45q.3-.35.325-.775.025-.425-.325-.775l-.1-.05q-.3-.35-.7-.325-.4.025-.75.325l-1.5 1.55ZM10.8 39.95q-1.1 0-1.925-.825T8.05 37.2V10.8q0-1.1.825-1.925T10.8 8.05h10.25q-.45-1.45.475-2.725Q22.45 4.05 24 4.05q1.6 0 2.525 1.275.925 1.275.425 2.725H37.2q1.1 0 1.925.825t.825 1.925v26.4q0 1.1-.825 1.925t-1.925.825Zm0-1.5h26.4q.45 0 .85-.4.4-.4.4-.85V10.8q0-.45-.4-.85-.4-.4-.85-.4H10.8q-.45 0-.85.4-.4.4-.4.85v26.4q0 .45.4.85.4.4.85.4ZM24 8.75q.65 0 1.15-.45.5-.45.5-1.15T25.15 6q-.5-.45-1.15-.45-.65 0-1.125.45T22.4 7.15q0 .7.475 1.15.475.45 1.125.45ZM9.55 38.45V9.55v28.9Z"/></svg>

<svg xmlns="http://www.w3.org/2000/svg" height="48" width="48"><path d="M15.7 32.2H17.2L29.35 20.05L27.85 18.55L15.7 30.7ZM30.2 19.2 31.75 17.75Q32.05 17.4 32.075 16.975Q32.1 16.55 31.75 16.2L31.65 16.15Q31.35 15.8 30.95 15.825Q30.55 15.85 30.25 16.15L28.7 17.7ZM10.8 39.95Q9.7 39.95 8.875 39.125Q8.05 38.3 8.05 37.2V10.8Q8.05 9.7 8.875 8.875Q9.7 8.05 10.8 8.05H20.65Q20.4 6.55 21.375 5.3Q22.35 4.05 24 4.05Q25.65 4.05 26.65 5.3Q27.65 6.55 27.3 8.05H37.2Q38.3 8.05 39.125 8.875Q39.95 9.7 39.95 10.8V37.2Q39.95 38.3 39.125 39.125Q38.3 39.95 37.2 39.95ZM24 8.8Q24.65 8.8 25.15 8.325Q25.65 7.85 25.65 7.2Q25.65 6.55 25.15 6.05Q24.65 5.55 24 5.55Q23.35 5.55 22.875 6.05Q22.4 6.55 22.4 7.2Q22.4 7.85 22.875 8.325Q23.35 8.8 24 8.8ZM10.8 38.45H37.2Q37.65 38.45 38.05 38.05Q38.45 37.65 38.45 37.2V10.8Q38.45 10.35 38.05 9.95Q37.65 9.55 37.2 9.55H10.8Q10.35 9.55 9.95 9.95Q9.55 10.35 9.55 10.8V37.2Q9.55 37.65 9.95 38.05Q10.35 38.45 10.8 38.45ZM9.55 9.5Q9.55 9.5 9.55 9.875Q9.55 10.25 9.55 10.75V37.05Q9.55 37.5 9.55 37.875Q9.55 38.25 9.55 38.25Q9.55 38.25 9.55 37.875Q9.55 37.5 9.55 37.05V10.75Q9.55 10.25 9.55 9.875Q9.55 9.5 9.55 9.5Z"/></svg>
